X: 1
T: Bour\'ee Pastourelle  [C]
O: central France
M: 6/8
L: 1/8
K: C
G \
| "C"ccd efe | "G"~dc/d/c/d/ "C"~ecG \
| "C"ccd efe | "G"~dc/d/e/d/ "C"c2 :|
|: e \
| "G"~d2B G2B | "C"cc/d/c/d/ ~ece \
| "G"~d2B G2B | "C"cc/d/e/d/ c2 :|


